apps/spreadsheeteditor/main/resources/img/toolbar/2.5x/btn-clear-filter.svg

<svg width="20" height="20" viewBox="0 0 20 20" fill="none" xmlns="http://www.w3.org/2000/svg">
<path fill-rule="evenodd" clip-rule="evenodd" d="M10 16L8 14V10L3 5H15L10 10V16ZM16.1464 16.8536L14.5 15.2071L12.8535 16.8536L12.1464 16.1465L13.7929 14.5L12.1464 12.8536L12.8535 12.1465L14.5 13.7929L16.1464 12.1465L16.8535 12.8536L15.2071 14.5L16.8535 16.1465L16.1464 16.8536Z" fill="black"/>
</svg>

<svg xmlns="http://www.w3.org/2000/svg" width="20" height="20" fill="none"><path fill="#000" d="M16.854 12.854 15.207 14.5l1.646 1.646-.707.707-1.646-1.646-1.646 1.646-.707-.707 1.646-1.646-1.646-1.646.707-.707 1.646 1.646 1.646-1.646.707.707ZM15 5l-5 5v6l-2-2v-4L3 5h12Z"/></svg>
